usr/share/icons/biglinux-icons-material-dark/symbolic/status/preferences-desktop-display-randr.svg

<?xml version="1.0" encoding="UTF-8" standalone="no"?>
<svg
   id="svg"
   version="1.1"
   viewBox="0 0 22 22"
   width="22"
   height="22"
   xmlns="http://www.w3.org/2000/svg"
   xmlns:svg="http://www.w3.org/2000/svg">
  <defs
     id="defs81">
    <style
       id="current-color-scheme"
       type="text/css">.ColorScheme-Text {
            color:#232629;
        }
        .ColorScheme-Highlight {
          color:#3daee9;
        }
        .ColorScheme-Background {
            color:#eff0f1;
        }
        .ColorScheme-ViewBackground {
            color:#fcfcfc;
        }
        .ColorScheme-ButtonFocus {
            color:#3daee9;
        }
        .ColorScheme-PositiveText {
            color:#27ae60;
        }
        .ColorScheme-NeutralText {
            color:#f67400;
        }
        .ColorScheme-NegativeText {
            color:#da4453;
        }</style>
  </defs>
  <g
     id="22-22-preferences-desktop-display-randr">
    <rect
       id="rect3832"
       x="0"
       y="0"
       width="22"
       height="22"
       fill-opacity="0" />
    <path
       id="rect2020"
       d="M 3,3 C 1.892,3 1,3.892 1,5 v 9 c 0,1.108 0.892,2 2,2 h 6 v 2 H 6.4882812 C 6.2173149,18 6,18.223 6,18.5 6,18.777 6.2173149,19 6.4882812,19 h 3 0.023438 2.9667968 0.04297 2.990235 C 15.782685,19 16,18.777 16,18.5 16,18.223 15.782685,18 15.511719,18 H 13 v -2 h 6 c 1.108,0 2,-0.892 2,-2 V 5 C 21,3.892 20.108,3 19,3 Z m 0,1 h 16 c 0.554,0 1,0.446 1,1 v 9 c 0,0.554 -0.446,1 -1,1 H 3 C 2.446,15 2,14.554 2,14 V 5 C 2,4.446 2.446,4 3,4 Z M 15.5,5 C 15.223,5 15,5.223 15,5.5 15,5.777 15.223,6 15.5,6 H 18 V 8.5 C 18,8.777 18.223,9 18.5,9 18.777,9 19,8.777 19,8.5 v -3 C 19,5.223 18.777,5 18.5,5 Z m -12,5 C 3.223,10 3,10.223 3,10.5 v 3 c 0,0.259687 0.1964783,0.472533 0.4492188,0.498047 C 3.4660681,13.999748 3.4826875,14 3.5,14 h 3 C 6.777,14 7,13.777 7,13.5 7,13.223 6.777,13 6.5,13 H 4 V 10.5 C 4,10.223 3.777,10 3.5,10 Z m 6.5,6 h 2 v 2 h -2 z"
       class="ColorScheme-Text"
       fill="currentColor" />
  </g>
</svg>

<svg xmlns="http://www.w3.org/2000/svg" width="22" height="22">
<defs id="defs81"><style id="current-color-scheme" type="text/css">.ColorScheme-Text { color:#3daee9; }</style></defs>
<path fill="none" d="M0 0h22v22H0z"/>
<path fill="currentColor" d="M3 3c-1.108 0-2 .892-2 2v9c0 1.108.892 2 2 2h6v2H6.488a.493.493 0 0 0-.488.5c0 .277.217.5.488.5h9.023a.493.493 0 0 0 .489-.5c0-.277-.217-.5-.488-.5H13v-2h6c1.108 0 2-.892 2-2V5c0-1.108-.892-2-2-2Zm0 1h16c.554 0 1 .446 1 1v9c0 .554-.446 1-1 1H3c-.554 0-1-.446-1-1V5c0-.554.446-1 1-1m12.5 1a.499.499 0 1 0 0 1H18v2.5a.499.499 0 1 0 1 0v-3c0-.277-.223-.5-.5-.5Zm-12 5c-.277 0-.5.223-.5.5v3a.5.5 0 0 0 .5.5h3a.499.499 0 1 0 0-1H4v-2.5c0-.277-.223-.5-.5-.5m6.5 6h2v2h-2z" class="ColorScheme-Text"/>
</svg>
